src/public/img/no-data-chart-side.svg

<svg width="294" height="56" viewBox="0 0 294 56" fill="none" xmlns="http://www.w3.org/2000/svg">
<rect y="24" width="4" height="24" rx="1" fill="url(#paint0_linear_1985_5299)"/>
<rect x="10" y="13" width="4" height="35" rx="1" fill="url(#paint1_linear_1985_5299)"/>
<rect x="20" y="18" width="4" height="30" rx="1" fill="url(#paint2_linear_1985_5299)"/>
<rect x="30" y="28" width="4" height="20" rx="1" fill="url(#paint3_linear_1985_5299)"/>
<rect x="40" y="8" width="4" height="40" rx="1" fill="url(#paint4_linear_1985_5299)"/>
<rect x="50" y="16" width="4" height="32" rx="1" fill="url(#paint5_linear_1985_5299)"/>
<rect x="60" y="21" width="4" height="27" rx="1" fill="url(#paint6_linear_1985_5299)"/>
<rect x="70" y="24" width="4" height="24" rx="1" fill="url(#paint7_linear_1985_5299)"/>
<rect x="80" y="36" width="4" height="12" rx="1" fill="url(#paint8_linear_1985_5299)"/>
<rect x="90" y="12" width="4" height="36" rx="1" fill="url(#paint9_linear_1985_5299)"/>
<rect x="100" y="40" width="4" height="8" rx="1" fill="url(#paint10_linear_1985_5299)"/>
<rect x="110" y="12" width="4" height="36" rx="1" fill="url(#paint11_linear_1985_5299)"/>
<rect x="120" y="12" width="4" height="36" rx="1" fill="url(#paint12_linear_1985_5299)"/>
<rect x="130" y="12" width="4" height="36" rx="1" fill="url(#paint13_linear_1985_5299)"/>
<rect x="140" y="24" width="4" height="24" rx="1" fill="url(#paint14_linear_1985_5299)"/>
<rect x="150" y="24" width="4" height="24" rx="1" fill="url(#paint15_linear_1985_5299)"/>
<rect x="160" y="8" width="4" height="40" rx="1" fill="url(#paint16_linear_1985_5299)"/>
<rect x="170" y="8" width="4" height="40" rx="1" fill="url(#paint17_linear_1985_5299)"/>
<rect x="180" y="36" width="4" height="12" rx="1" fill="url(#paint18_linear_1985_5299)"/>
<rect x="190" y="36" width="4" height="12" rx="1" fill="url(#paint19_linear_1985_5299)"/>
<rect x="200" y="8" width="4" height="40" rx="1" fill="url(#paint20_linear_1985_5299)"/>
<rect x="210" y="21" width="4" height="27" rx="1" fill="url(#paint21_linear_1985_5299)"/>
<rect x="220" y="21" width="4" height="27" rx="1" fill="url(#paint22_linear_1985_5299)"/>
<rect x="230" y="31" width="4" height="17" rx="1" fill="url(#paint23_linear_1985_5299)"/>
<rect x="240" y="16" width="4" height="32" rx="1" fill="url(#paint24_linear_1985_5299)"/>
<rect x="250" y="12" width="4" height="36" rx="1" fill="url(#paint25_linear_1985_5299)"/>
<rect x="260" y="31" width="4" height="17" rx="1" fill="url(#paint26_linear_1985_5299)"/>
<rect x="270" y="24" width="4" height="24" rx="1" fill="url(#paint27_linear_1985_5299)"/>
<rect x="280" y="8" width="4" height="40" rx="1" fill="url(#paint28_linear_1985_5299)"/>
<rect x="290" y="31" width="4" height="17" rx="1" fill="url(#paint29_linear_1985_5299)"/>
<circle cx="147" cy="28" r="26" fill="#EDF0F2" stroke="white" stroke-width="4"/>
<path fill-rule="evenodd" clip-rule="evenodd" d="M138.514 34.3923C138.212 34.6754 138.197 35.1501 138.48 35.4524C138.709 35.6969 139.063 35.7538 139.35 35.6169C139.389 35.5347 139.444 35.4583 139.515 35.3923L154.427 21.4254C154.485 21.3713 154.549 21.328 154.617 21.2956C154.746 21.0252 154.704 20.692 154.487 20.4601C154.204 20.1578 153.729 20.1423 153.427 20.4254L151.925 21.8325C150.478 20.9184 148.805 20.25 147 20.25C143.936 20.25 141.253 22.1762 139.408 23.9609C138.47 24.8676 137.714 25.7717 137.192 26.4483C136.931 26.7872 136.727 27.0706 136.588 27.2708C136.518 27.3709 136.464 27.4504 136.427 27.5057C136.409 27.5333 136.395 27.555 136.385 27.5702L136.373 27.588L136.37 27.5932L136.369 27.5949C136.369 27.5949 136.368 27.5959 137 28L136.368 27.5959C136.211 27.8423 136.211 28.1577 136.368 28.4041L137 28C136.368 28.4041 136.368 28.4041 136.368 28.4041L136.37 28.4068L136.373 28.412L136.385 28.4298C136.395 28.445 136.409 28.4666 136.427 28.4943C136.464 28.5496 136.518 28.6291 136.588 28.7292C136.727 28.9294 136.931 29.2128 137.192 29.5517C137.714 30.2283 138.47 31.1324 139.408 32.0391C139.665 32.288 139.938 32.5396 140.227 32.7883L138.514 34.3923ZM143 28C143 28.6451 143.153 29.2545 143.424 29.7941L141.329 31.7565C141.023 31.4985 140.73 31.2315 140.45 30.9609C139.578 30.1176 138.87 29.2717 138.38 28.6358C138.187 28.3861 138.029 28.1698 137.909 28C138.029 27.8302 138.187 27.6139 138.38 27.3642C138.87 26.7283 139.578 25.8824 140.45 25.0391C142.224 23.3238 144.541 21.75 147 21.75C148.325 21.75 149.609 22.2069 150.788 22.8967L149.024 24.5492C148.43 24.2001 147.739 24 147 24C144.791 24 143 25.7909 143 28Z" fill="#111A2C"/>
<path d="M154.255 23.6418L153.157 24.6702C153.291 24.792 153.422 24.9152 153.55 25.0391C154.422 25.8824 155.13 26.7283 155.62 27.3642C155.813 27.6139 155.971 27.8302 156.091 28C155.971 28.1698 155.813 28.3861 155.62 28.6358C155.13 29.2717 154.422 30.1176 153.55 30.9609C151.776 32.6762 149.459 34.25 147 34.25C145.895 34.25 144.819 33.9322 143.808 33.4266L142.65 34.5104C143.959 35.244 145.43 35.75 147 35.75C150.064 35.75 152.747 33.8238 154.592 32.0391C155.53 31.1324 156.286 30.2283 156.808 29.5517C157.069 29.2128 157.273 28.9294 157.412 28.7292C157.482 28.6291 157.536 28.5496 157.573 28.4943C157.591 28.4666 157.605 28.445 157.615 28.4298L157.627 28.412L157.63 28.4068L157.631 28.4051C157.631 28.4051 157.632 28.4041 157 28L157.632 28.4041C157.789 28.1577 157.789 27.8423 157.632 27.5959L157 28C157.632 27.5959 157.632 27.5959 157.632 27.5959L157.63 27.5932L157.627 27.588L157.615 27.5702C157.605 27.555 157.591 27.5333 157.573 27.5057C157.536 27.4504 157.482 27.3709 157.412 27.2708C157.273 27.0706 157.069 26.7872 156.808 26.4483C156.286 25.7717 155.53 24.8676 154.592 23.9609C154.483 23.8549 154.37 23.7484 154.255 23.6418Z" fill="#111A2C"/>
<path d="M145.6 31.7481C146.036 31.911 146.507 32 147 32C149.209 32 151 30.2091 151 28C151 27.5995 150.941 27.2128 150.832 26.848L145.6 31.7481Z" fill="#111A2C"/>
<defs>
<linearGradient id="paint0_linear_1985_5299" x1="2" y1="24" x2="2" y2="48" gradientUnits="userSpaceOnUse">
<stop stop-color="#111A2C" stop-opacity="0.24"/>
<stop offset="1" stop-color="#111A2C" stop-opacity="0.04"/>
</linearGradient>
<linearGradient id="paint1_linear_1985_5299" x1="12" y1="13" x2="12" y2="48" gradientUnits="userSpaceOnUse">
<stop stop-color="#111A2C" stop-opacity="0.24"/>
<stop offset="1" stop-color="#111A2C" stop-opacity="0.04"/>
</linearGradient>
<linearGradient id="paint2_linear_1985_5299" x1="22" y1="18" x2="22" y2="48" gradientUnits="userSpaceOnUse">
<stop stop-color="#111A2C" stop-opacity="0.24"/>
<stop offset="1" stop-color="#111A2C" stop-opacity="0.04"/>
</linearGradient>
<linearGradient id="paint3_linear_1985_5299" x1="32" y1="28" x2="32" y2="48" gradientUnits="userSpaceOnUse">
<stop stop-color="#111A2C" stop-opacity="0.24"/>
<stop offset="1" stop-color="#111A2C" stop-opacity="0.04"/>
</linearGradient>
<linearGradient id="paint4_linear_1985_5299" x1="42" y1="8" x2="42" y2="48" gradientUnits="userSpaceOnUse">
<stop stop-color="#111A2C" stop-opacity="0.24"/>
<stop offset="1" stop-color="#111A2C" stop-opacity="0.04"/>
</linearGradient>
<linearGradient id="paint5_linear_1985_5299" x1="52" y1="16" x2="52" y2="48" gradientUnits="userSpaceOnUse">
<stop stop-color="#111A2C" stop-opacity="0.24"/>
<stop offset="1" stop-color="#111A2C" stop-opacity="0.04"/>
</linearGradient>
<linearGradient id="paint6_linear_1985_5299" x1="62" y1="21" x2="62" y2="48" gradientUnits="userSpaceOnUse">
<stop stop-color="#111A2C" stop-opacity="0.24"/>
<stop offset="1" stop-color="#111A2C" stop-opacity="0.04"/>
</linearGradient>
<linearGradient id="paint7_linear_1985_5299" x1="72" y1="24" x2="72" y2="48" gradientUnits="userSpaceOnUse">
<stop stop-color="#111A2C" stop-opacity="0.24"/>
<stop offset="1" stop-color="#111A2C" stop-opacity="0.04"/>
</linearGradient>
<linearGradient id="paint8_linear_1985_5299" x1="82" y1="36" x2="82" y2="48" gradientUnits="userSpaceOnUse">
<stop stop-color="#111A2C" stop-opacity="0.24"/>
<stop offset="1" stop-color="#111A2C" stop-opacity="0.04"/>
</linearGradient>
<linearGradient id="paint9_linear_1985_5299" x1="92" y1="12" x2="92" y2="48" gradientUnits="userSpaceOnUse">
<stop stop-color="#111A2C" stop-opacity="0.24"/>
<stop offset="1" stop-color="#111A2C" stop-opacity="0.04"/>
</linearGradient>
<linearGradient id="paint10_linear_1985_5299" x1="102" y1="40" x2="102" y2="48" gradientUnits="userSpaceOnUse">
<stop stop-color="#111A2C" stop-opacity="0.24"/>
<stop offset="1" stop-color="#111A2C" stop-opacity="0.04"/>
</linearGradient>
<linearGradient id="paint11_linear_1985_5299" x1="112" y1="12" x2="112" y2="48" gradientUnits="userSpaceOnUse">
<stop stop-color="#111A2C" stop-opacity="0.24"/>
<stop offset="1" stop-color="#111A2C" stop-opacity="0.04"/>
</linearGradient>
<linearGradient id="paint12_linear_1985_5299" x1="122" y1="12" x2="122" y2="48" gradientUnits="userSpaceOnUse">
<stop stop-color="#111A2C" stop-opacity="0.24"/>
<stop offset="1" stop-color="#111A2C" stop-opacity="0.04"/>
</linearGradient>
<linearGradient id="paint13_linear_1985_5299" x1="132" y1="12" x2="132" y2="48" gradientUnits="userSpaceOnUse">
<stop stop-color="#111A2C" stop-opacity="0.24"/>
<stop offset="1" stop-color="#111A2C" stop-opacity="0.04"/>
</linearGradient>
<linearGradient id="paint14_linear_1985_5299" x1="142" y1="24" x2="142" y2="48" gradientUnits="userSpaceOnUse">
<stop stop-color="#111A2C" stop-opacity="0.24"/>
<stop offset="1" stop-color="#111A2C" stop-opacity="0.04"/>
</linearGradient>
<linearGradient id="paint15_linear_1985_5299" x1="152" y1="24" x2="152" y2="48" gradientUnits="userSpaceOnUse">
<stop stop-color="#111A2C" stop-opacity="0.24"/>
<stop offset="1" stop-color="#111A2C" stop-opacity="0.04"/>
</linearGradient>
<linearGradient id="paint16_linear_1985_5299" x1="162" y1="8" x2="162" y2="48" gradientUnits="userSpaceOnUse">
<stop stop-color="#111A2C" stop-opacity="0.24"/>
<stop offset="1" stop-color="#111A2C" stop-opacity="0.04"/>
</linearGradient>
<linearGradient id="paint17_linear_1985_5299" x1="172" y1="8" x2="172" y2="48" gradientUnits="userSpaceOnUse">
<stop stop-color="#111A2C" stop-opacity="0.24"/>
<stop offset="1" stop-color="#111A2C" stop-opacity="0.04"/>
</linearGradient>
<linearGradient id="paint18_linear_1985_5299" x1="182" y1="36" x2="182" y2="48" gradientUnits="userSpaceOnUse">
<stop stop-color="#111A2C" stop-opacity="0.24"/>
<stop offset="1" stop-color="#111A2C" stop-opacity="0.04"/>
</linearGradient>
<linearGradient id="paint19_linear_1985_5299" x1="192" y1="36" x2="192" y2="48" gradientUnits="userSpaceOnUse">
<stop stop-color="#111A2C" stop-opacity="0.24"/>
<stop offset="1" stop-color="#111A2C" stop-opacity="0.04"/>
</linearGradient>
<linearGradient id="paint20_linear_1985_5299" x1="202" y1="8" x2="202" y2="48" gradientUnits="userSpaceOnUse">
<stop stop-color="#111A2C" stop-opacity="0.24"/>
<stop offset="1" stop-color="#111A2C" stop-opacity="0.04"/>
</linearGradient>
<linearGradient id="paint21_linear_1985_5299" x1="212" y1="21" x2="212" y2="48" gradientUnits="userSpaceOnUse">
<stop stop-color="#111A2C" stop-opacity="0.24"/>
<stop offset="1" stop-color="#111A2C" stop-opacity="0.04"/>
</linearGradient>
<linearGradient id="paint22_linear_1985_5299" x1="222" y1="21" x2="222" y2="48" gradientUnits="userSpaceOnUse">
<stop stop-color="#111A2C" stop-opacity="0.24"/>
<stop offset="1" stop-color="#111A2C" stop-opacity="0.04"/>
</linearGradient>
<linearGradient id="paint23_linear_1985_5299" x1="232" y1="31" x2="232" y2="48" gradientUnits="userSpaceOnUse">
<stop stop-color="#111A2C" stop-opacity="0.24"/>
<stop offset="1" stop-color="#111A2C" stop-opacity="0.04"/>
</linearGradient>
<linearGradient id="paint24_linear_1985_5299" x1="242" y1="16" x2="242" y2="48" gradientUnits="userSpaceOnUse">
<stop stop-color="#111A2C" stop-opacity="0.24"/>
<stop offset="1" stop-color="#111A2C" stop-opacity="0.04"/>
</linearGradient>
<linearGradient id="paint25_linear_1985_5299" x1="252" y1="12" x2="252" y2="48" gradientUnits="userSpaceOnUse">
<stop stop-color="#111A2C" stop-opacity="0.24"/>
<stop offset="1" stop-color="#111A2C" stop-opacity="0.04"/>
</linearGradient>
<linearGradient id="paint26_linear_1985_5299" x1="262" y1="31" x2="262" y2="48" gradientUnits="userSpaceOnUse">
<stop stop-color="#111A2C" stop-opacity="0.24"/>
<stop offset="1" stop-color="#111A2C" stop-opacity="0.04"/>
</linearGradient>
<linearGradient id="paint27_linear_1985_5299" x1="272" y1="24" x2="272" y2="48" gradientUnits="userSpaceOnUse">
<stop stop-color="#111A2C" stop-opacity="0.24"/>
<stop offset="1" stop-color="#111A2C" stop-opacity="0.04"/>
</linearGradient>
<linearGradient id="paint28_linear_1985_5299" x1="282" y1="8" x2="282" y2="48" gradientUnits="userSpaceOnUse">
<stop stop-color="#111A2C" stop-opacity="0.24"/>
<stop offset="1" stop-color="#111A2C" stop-opacity="0.04"/>
</linearGradient>
<linearGradient id="paint29_linear_1985_5299" x1="292" y1="31" x2="292" y2="48" gradientUnits="userSpaceOnUse">
<stop stop-color="#111A2C" stop-opacity="0.24"/>
<stop offset="1" stop-color="#111A2C" stop-opacity="0.04"/>
</linearGradient>
</defs>
</svg>

<svg xmlns="http://www.w3.org/2000/svg" width="294" height="56" fill="none">
  <rect width="4" height="24" y="24" fill="url(#a)" rx="1"/>
  <rect width="4" height="35" x="10" y="13" fill="url(#b)" rx="1"/>
  <rect width="4" height="30" x="20" y="18" fill="url(#c)" rx="1"/>
  <rect width="4" height="20" x="30" y="28" fill="url(#d)" rx="1"/>
  <rect width="4" height="40" x="40" y="8" fill="url(#e)" rx="1"/>
  <rect width="4" height="32" x="50" y="16" fill="url(#f)" rx="1"/>
  <rect width="4" height="27" x="60" y="21" fill="url(#g)" rx="1"/>
  <rect width="4" height="24" x="70" y="24" fill="url(#h)" rx="1"/>
  <rect width="4" height="12" x="80" y="36" fill="url(#i)" rx="1"/>
  <rect width="4" height="36" x="90" y="12" fill="url(#j)" rx="1"/>
  <rect width="4" height="8" x="100" y="40" fill="url(#k)" rx="1"/>
  <rect width="4" height="36" x="110" y="12" fill="url(#l)" rx="1"/>
  <rect width="4" height="36" x="120" y="12" fill="url(#m)" rx="1"/>
  <rect width="4" height="36" x="130" y="12" fill="url(#n)" rx="1"/>
  <rect width="4" height="24" x="140" y="24" fill="url(#o)" rx="1"/>
  <rect width="4" height="24" x="150" y="24" fill="url(#p)" rx="1"/>
  <rect width="4" height="40" x="160" y="8" fill="url(#q)" rx="1"/>
  <rect width="4" height="40" x="170" y="8" fill="url(#r)" rx="1"/>
  <rect width="4" height="12" x="180" y="36" fill="url(#s)" rx="1"/>
  <rect width="4" height="12" x="190" y="36" fill="url(#t)" rx="1"/>
  <rect width="4" height="40" x="200" y="8" fill="url(#u)" rx="1"/>
  <rect width="4" height="27" x="210" y="21" fill="url(#v)" rx="1"/>
  <rect width="4" height="27" x="220" y="21" fill="url(#w)" rx="1"/>
  <rect width="4" height="17" x="230" y="31" fill="url(#x)" rx="1"/>
  <rect width="4" height="32" x="240" y="16" fill="url(#y)" rx="1"/>
  <rect width="4" height="36" x="250" y="12" fill="url(#z)" rx="1"/>
  <rect width="4" height="17" x="260" y="31" fill="url(#A)" rx="1"/>
  <rect width="4" height="24" x="270" y="24" fill="url(#B)" rx="1"/>
  <rect width="4" height="40" x="280" y="8" fill="url(#C)" rx="1"/>
  <rect width="4" height="17" x="290" y="31" fill="url(#D)" rx="1"/>
  <circle cx="147" cy="28" r="26" fill="#EDF0F2" stroke="#fff" stroke-width="4"/>
  <path fill="#111A2C" fill-rule="evenodd" d="M138.514 34.392a.75.75 0 0 0 .836 1.225.738.738 0 0 1 .165-.225l14.912-13.967a.753.753 0 0 1 .19-.13.75.75 0 0 0-1.19-.87l-1.502 1.407c-1.447-.914-3.12-1.582-4.925-1.582-3.064 0-5.747 1.926-7.592 3.71a23.27 23.27 0 0 0-2.981 3.546l-.042.064-.012.018-.003.005-.001.002L137 28l-.632-.404a.752.752 0 0 0 0 .808L137 28l-.632.404.002.003.003.005.012.018.042.064a20.988 20.988 0 0 0 .765 1.057 23.27 23.27 0 0 0 2.216 2.488c.257.249.53.5.819.75l-1.713 1.603ZM143 28c0 .645.153 1.255.424 1.794l-2.095 1.962a17.494 17.494 0 0 1-.879-.795A21.73 21.73 0 0 1 137.909 28a21.73 21.73 0 0 1 2.541-2.96c1.774-1.716 4.091-3.29 6.55-3.29 1.325 0 2.609.457 3.788 1.147l-1.764 1.652A4 4 0 0 0 143 28Z" clip-rule="evenodd"/>
  <path fill="#111A2C" d="m154.255 23.642-1.098 1.028a21.73 21.73 0 0 1 2.934 3.33 21.73 21.73 0 0 1-2.541 2.96c-1.774 1.716-4.091 3.29-6.55 3.29-1.105 0-2.181-.318-3.192-.823l-1.158 1.083c1.309.734 2.78 1.24 4.35 1.24 3.064 0 5.747-1.926 7.592-3.71a23.27 23.27 0 0 0 2.981-3.546l.042-.064.012-.018.003-.005.001-.002L157 28l.632.404a.752.752 0 0 0 0-.808L157 28l.632-.404-.002-.003-.003-.005-.012-.018-.042-.064a20.988 20.988 0 0 0-.765-1.057 23.27 23.27 0 0 0-2.553-2.807Z"/>
  <path fill="#111A2C" d="M145.6 31.748a4 4 0 0 0 5.232-4.9l-5.232 4.9Z"/>
  <defs>
    <linearGradient id="a" x1="2" x2="2" y1="24" y2="48" gradientUnits="userSpaceOnUse">
      <stop stop-color="#111A2C" stop-opacity=".24"/>
      <stop offset="1" stop-color="#111A2C" stop-opacity=".04"/>
    </linearGradient>
    <linearGradient id="b" x1="12" x2="12" y1="13" y2="48" gradientUnits="userSpaceOnUse">
      <stop stop-color="#111A2C" stop-opacity=".24"/>
      <stop offset="1" stop-color="#111A2C" stop-opacity=".04"/>
    </linearGradient>
    <linearGradient id="c" x1="22" x2="22" y1="18" y2="48" gradientUnits="userSpaceOnUse">
      <stop stop-color="#111A2C" stop-opacity=".24"/>
      <stop offset="1" stop-color="#111A2C" stop-opacity=".04"/>
    </linearGradient>
    <linearGradient id="d" x1="32" x2="32" y1="28" y2="48" gradientUnits="userSpaceOnUse">
      <stop stop-color="#111A2C" stop-opacity=".24"/>
      <stop offset="1" stop-color="#111A2C" stop-opacity=".04"/>
    </linearGradient>
    <linearGradient id="e" x1="42" x2="42" y1="8" y2="48" gradientUnits="userSpaceOnUse">
      <stop stop-color="#111A2C" stop-opacity=".24"/>
      <stop offset="1" stop-color="#111A2C" stop-opacity=".04"/>
    </linearGradient>
    <linearGradient id="f" x1="52" x2="52" y1="16" y2="48" gradientUnits="userSpaceOnUse">
      <stop stop-color="#111A2C" stop-opacity=".24"/>
      <stop offset="1" stop-color="#111A2C" stop-opacity=".04"/>
    </linearGradient>
    <linearGradient id="g" x1="62" x2="62" y1="21" y2="48" gradientUnits="userSpaceOnUse">
      <stop stop-color="#111A2C" stop-opacity=".24"/>
      <stop offset="1" stop-color="#111A2C" stop-opacity=".04"/>
    </linearGradient>
    <linearGradient id="h" x1="72" x2="72" y1="24" y2="48" gradientUnits="userSpaceOnUse">
      <stop stop-color="#111A2C" stop-opacity=".24"/>
      <stop offset="1" stop-color="#111A2C" stop-opacity=".04"/>
    </linearGradient>
    <linearGradient id="i" x1="82" x2="82" y1="36" y2="48" gradientUnits="userSpaceOnUse">
      <stop stop-color="#111A2C" stop-opacity=".24"/>
      <stop offset="1" stop-color="#111A2C" stop-opacity=".04"/>
    </linearGradient>
    <linearGradient id="j" x1="92" x2="92" y1="12" y2="48" gradientUnits="userSpaceOnUse">
      <stop stop-color="#111A2C" stop-opacity=".24"/>
      <stop offset="1" stop-color="#111A2C" stop-opacity=".04"/>
    </linearGradient>
    <linearGradient id="k" x1="102" x2="102" y1="40" y2="48" gradientUnits="userSpaceOnUse">
      <stop stop-color="#111A2C" stop-opacity=".24"/>
      <stop offset="1" stop-color="#111A2C" stop-opacity=".04"/>
    </linearGradient>
    <linearGradient id="l" x1="112" x2="112" y1="12" y2="48" gradientUnits="userSpaceOnUse">
      <stop stop-color="#111A2C" stop-opacity=".24"/>
      <stop offset="1" stop-color="#111A2C" stop-opacity=".04"/>
    </linearGradient>
    <linearGradient id="m" x1="122" x2="122" y1="12" y2="48" gradientUnits="userSpaceOnUse">
      <stop stop-color="#111A2C" stop-opacity=".24"/>
      <stop offset="1" stop-color="#111A2C" stop-opacity=".04"/>
    </linearGradient>
    <linearGradient id="n" x1="132" x2="132" y1="12" y2="48" gradientUnits="userSpaceOnUse">
      <stop stop-color="#111A2C" stop-opacity=".24"/>
      <stop offset="1" stop-color="#111A2C" stop-opacity=".04"/>
    </linearGradient>
    <linearGradient id="o" x1="142" x2="142" y1="24" y2="48" gradientUnits="userSpaceOnUse">
      <stop stop-color="#111A2C" stop-opacity=".24"/>
      <stop offset="1" stop-color="#111A2C" stop-opacity=".04"/>
    </linearGradient>
    <linearGradient id="p" x1="152" x2="152" y1="24" y2="48" gradientUnits="userSpaceOnUse">
      <stop stop-color="#111A2C" stop-opacity=".24"/>
      <stop offset="1" stop-color="#111A2C" stop-opacity=".04"/>
    </linearGradient>
    <linearGradient id="q" x1="162" x2="162" y1="8" y2="48" gradientUnits="userSpaceOnUse">
      <stop stop-color="#111A2C" stop-opacity=".24"/>
      <stop offset="1" stop-color="#111A2C" stop-opacity=".04"/>
    </linearGradient>
    <linearGradient id="r" x1="172" x2="172" y1="8" y2="48" gradientUnits="userSpaceOnUse">
      <stop stop-color="#111A2C" stop-opacity=".24"/>
      <stop offset="1" stop-color="#111A2C" stop-opacity=".04"/>
    </linearGradient>
    <linearGradient id="s" x1="182" x2="182" y1="36" y2="48" gradientUnits="userSpaceOnUse">
      <stop stop-color="#111A2C" stop-opacity=".24"/>
      <stop offset="1" stop-color="#111A2C" stop-opacity=".04"/>
    </linearGradient>
    <linearGradient id="t" x1="192" x2="192" y1="36" y2="48" gradientUnits="userSpaceOnUse">
      <stop stop-color="#111A2C" stop-opacity=".24"/>
      <stop offset="1" stop-color="#111A2C" stop-opacity=".04"/>
    </linearGradient>
    <linearGradient id="u" x1="202" x2="202" y1="8" y2="48" gradientUnits="userSpaceOnUse">
      <stop stop-color="#111A2C" stop-opacity=".24"/>
      <stop offset="1" stop-color="#111A2C" stop-opacity=".04"/>
    </linearGradient>
    <linearGradient id="v" x1="212" x2="212" y1="21" y2="48" gradientUnits="userSpaceOnUse">
      <stop stop-color="#111A2C" stop-opacity=".24"/>
      <stop offset="1" stop-color="#111A2C" stop-opacity=".04"/>
    </linearGradient>
    <linearGradient id="w" x1="222" x2="222" y1="21" y2="48" gradientUnits="userSpaceOnUse">
      <stop stop-color="#111A2C" stop-opacity=".24"/>
      <stop offset="1" stop-color="#111A2C" stop-opacity=".04"/>
    </linearGradient>
    <linearGradient id="x" x1="232" x2="232" y1="31" y2="48" gradientUnits="userSpaceOnUse">
      <stop stop-color="#111A2C" stop-opacity=".24"/>
      <stop offset="1" stop-color="#111A2C" stop-opacity=".04"/>
    </linearGradient>
    <linearGradient id="y" x1="242" x2="242" y1="16" y2="48" gradientUnits="userSpaceOnUse">
      <stop stop-color="#111A2C" stop-opacity=".24"/>
      <stop offset="1" stop-color="#111A2C" stop-opacity=".04"/>
    </linearGradient>
    <linearGradient id="z" x1="252" x2="252" y1="12" y2="48" gradientUnits="userSpaceOnUse">
      <stop stop-color="#111A2C" stop-opacity=".24"/>
      <stop offset="1" stop-color="#111A2C" stop-opacity=".04"/>
    </linearGradient>
    <linearGradient id="A" x1="262" x2="262" y1="31" y2="48" gradientUnits="userSpaceOnUse">
      <stop stop-color="#111A2C" stop-opacity=".24"/>
      <stop offset="1" stop-color="#111A2C" stop-opacity=".04"/>
    </linearGradient>
    <linearGradient id="B" x1="272" x2="272" y1="24" y2="48" gradientUnits="userSpaceOnUse">
      <stop stop-color="#111A2C" stop-opacity=".24"/>
      <stop offset="1" stop-color="#111A2C" stop-opacity=".04"/>
    </linearGradient>
    <linearGradient id="C" x1="282" x2="282" y1="8" y2="48" gradientUnits="userSpaceOnUse">
      <stop stop-color="#111A2C" stop-opacity=".24"/>
      <stop offset="1" stop-color="#111A2C" stop-opacity=".04"/>
    </linearGradient>
    <linearGradient id="D" x1="292" x2="292" y1="31" y2="48" gradientUnits="userSpaceOnUse">
      <stop stop-color="#111A2C" stop-opacity=".24"/>
      <stop offset="1" stop-color="#111A2C" stop-opacity=".04"/>
    </linearGradient>
  </defs>
</svg>
